X:1
T:Keep Me Under the Blood
T:Keep Me Under the Blood
T:Lelia Naylor Morris
T:Lelia Naylor Morris, 1900
T:Public Domain Courtesy of the Cyber Hymnal™
C:Lelia Naylor Morris
Z:Public Domain
Z:Courtesy of the Cyber Hymnal™
%%score ( 1 2 ) ( 3 4 )
L:1/8
Q:1/4=100
M:6/8
K:Bb
V:1 treble 
V:2 treble 
V:3 bass 
V:4 bass 
V:1
 [DF]2 [DF] ([DF][B,D])[DF] | [DB]2 [EB] [DB]3 | [DF]2 [Fd] (dc)[FB] | [Fc]6 | %4
w: 1.~Thou my ran- * som|price hast paid,|Bless- èd Son * of|God;|
w: 2.~At the cross * where|first I knelt,|Full of sin- * ful|pride,|
w: 3.~Where to self * and|sin I died,|Where the nails * were|driv’n,|
w: 4.~Shou- ting with * my|lat- est breath|Prais- es to * our|God,|
 [DF]2 [Fd] (dc)[=Ad] | [Ge]2 [Ge] [EG]3 | [EA]2 [EA] ([EF][EG])[EA] | [DB]6 || %8
w: Since on Thee * my|heart is stayed,|Keep me under * the|blood.|
w: Where I first * sal-|va- tion felt,|Let me still * a-|bide.|
w: Let me still * for|cleans- ing hide|In Thy dear * side|riv’n.|
w: Who my soul * has|saved and kept|By His pre- * cious|blood.|
"^Refrain" [Fc]2 [Fc] [Fc][F=B][Fc] | [Fd]2 [Ec] [DB]3 | [Fd][Fd][Fd] [Fe]2 [Fd] | [Fc]6 | %12
w: ||||
w: ||||
w: ||||
w: ||||
 [Fd]2 [Fd] [Fc]2 [Fc] | [DB]2 [DB] !fermata!G3 | [DF]2 [DF] [EA][EG][EA] | [DB]6 |] %16
w: ||||
w: ||||
w: ||||
w: ||||
V:2
 x6 | x6 | x3 F2 x | x6 | x3 _A2 x | x6 | x6 | x6 || x6 | x6 | x6 | x6 | x6 | x3 (E2 ^C) | x6 | %15
 x6 |] %16
V:3
 [B,,B,]2 [B,,B,] (B,F,)[B,,B,] | [B,,B,]2 [B,,G,] [B,,F,]3 | %2
w: ~ ~ ~ * ~|~ ~ ~|
 [B,,B,]2 [B,,B,] ([B,,B,][C,A,])[D,B,] | [F,A,]6 | [B,,B,]2 [B,,B,] [B,,B,]2 [B,,B,] | %5
w: ~ ~ ~ * ~|~|~ ~ ~ ~|
 [E,B,]2 [E,B,] [E,B,]3 | F,2 [F,C] [F,A,][F,B,][F,C] | [B,,B,]6 || %8
w: ~ ~ ~|~ ~ ~ ~ ~|~|
 [F,A,]2 [F,A,] [F,A,][F,^G,][F,A,] | [F,B,]2 [F,A,] [B,,F,]3 | B,B,B, [A,C]2 B, | [F,A,]6 | %12
w: Keep me un- der the|blood, dear Lord,|Cal- va- ry’s crim- son|flood;|
 [B,,B,]2 [B,,B,] [F,A,]2 [F,A,] | [G,B,]2 [G,B,] !fermata!B,3 | [F,B,]2 [F,B,] F,F,F, | %15
w: Not mine own, but|Thine a- lone,|Keep me un- der the|
 [B,,F,]6 |] %16
w: blood.|
V:4
 x3 B,,2 x | x6 | x6 | x6 | x6 | x6 | F,2 x4 | x6 || x6 | x6 | B,B,B, x B, x | x6 | x6 | %13
 x3 (E,2 =E,) | x3 F,F,F, | x6 |] %16

